X: 8493
T: Creaking Door, The
R: slip jig
M: 9/8
K: Gmajor
DGG Bdd gdB|DGG Bdd cBA|DGG Bdd gdB|gdB cAF G3:|
gdd gdd BGG|DGG GBd cBA|gdd gdd BGG|DGG cBA G3:|
BAB cBc dBG|BAB cBc d3|BAB cBc dBG|DGG cAF G3:|
dBB cAA BGG|DGG GBd cBA|dBB cAA BGG|DGG cAF G3:|

